X:95
T:Reel des Skieurs
C:Joseph Allard
M:2/4
L:1/16
Z:abc by Bruce Osborne - bosborne@kos.net
K:G
Bc|d2gd B2dB|G2BG D2DF|A2AB cBcA|GFGA BABc|!
d2gd B2dB|G2BG D2DF|A2AB cAFA|G2B2 G2:|!
K:C
|:GB|c2Gc e2ce|g6gf|eceg fedc|BGAB cBAG|!
c2Gc e2ce|g6gf|eceg fedc|BGAB c2:|!
